!!!!SEGMENT: pl-cz--iii-896--002_anonim--partita-es-andante.krn
!!!cenid: 18xx:2491
!!!COM: Anonim
!!!COM-rismid: pe30004985
!!!CDT:
!!!CNT:
!!!OPR: Partita Es
!!!OTL: Andante
!!!OMV: 002
!!!PDT:
!!!AGN: Secular; Partita
!!!SMS-siglum: PL-CZ
!!!SMS-shelfmark: III-896
!!!SMS-shelfwork: 001-002 M
!!!SMS-variant:
!!!SMS-altvar:
!!!NIFC-rismid: 1001012556
!!!URL-scan: http://repozytorium.nifc.pl/skany/pl-cz-nut--iii-896
!!!ONB-nifc: UWAGA: częsci Partity: 1. Allegro molto, 2. Andante, 3. Menuetto, 4. Finale
!!!key:
**kern	**dynam	**kern	**dynam	**kern	**dynam	**kern	**dynam	**kern	**dynam	**kern	**dynam
*part6	*part6	*part5	*part5	*part4	*part4	*part3	*part3	*part2	*part2	*part1	*part1
*staff6	*	*staff5	*	*staff4	*	*staff3	*	*staff2	*	*staff1	*
*Icor	*	*Icor	*	*Ifagot	*	*Ifagot	*	*Iclars	*	*Iclars	*
*I"Corno Secondo in Dis	*	*I"Corno Primo in Dis	*	*I"Fagotto Secondo	*	*I"Fagotto Primo	*	*I"Clarinetto Secondo	*	*I"Clarinetto Primo	*
*I'cor 2 in D#	*	*I'cor 1 in D#	*	*I'fag 2	*	*I'fag 1	*	*I'cl 2 in B♭	*	*I'cl 1 in B♭	*
*clefG2	*	*clefG2	*	*clefF4	*	*clefF4	*	*clefG2	*	*clefG2	*
*ITrd1c2	*	*ITrd1c2	*	*	*	*	*	*ITrd1c2	*	*ITrd1c2	*
*k[b-e-]	*	*k[b-e-]	*	*k[b-e-]	*	*k[b-e-]	*	*k[b-e-]	*	*k[b-e-]	*
*B-:	*	*B-:	*	*B-:	*	*B-:	*	*B-:	*	*B-:	*
*M2/2	*	*M2/2	*	*M2/2	*	*M2/2	*	*M2/2	*	*M2/2	*
*met(c|)	*	*met(c|)	*	*met(c|)	*	*met(c|)	*	*met(c|)	*	*met(c|)	*
*>A	*	*>A	*	*>A	*	*>A	*	*>A	*	*>A	*
!	!	!LO:TX:t=P:problem:przy pierwszej części utworu zapisane jest Corno in Dis ale dla poprawnego brzmienia tej części utworu trzeba zapisać w B	!	!	!	!	!	!	!	!LO:TX:t=P:problem:nieprecyzyjnie określone zmiany tonacji w utworze	!
!	!	!LO:TX:a:i:B:t=Andante	!	!	!	!	!	!	!	!LO:TX:a:B:t=/ &colon; Andante &colon;/	!
!LO:TX:a:i:B:t=Andante	!	!	!	!LO:TX:a:B:t=/&colon; Andante &colon;/	!	!LO:TX:a:B:t=/&colon; Andante &colon;/	!	!LO:TX:a:B:t=/&colon; Andante &colon;/	!	!	!
4dd\	.	4ff\	.	2r	.	2r	.	4dd\	.	4ff\	.
!	!	!LO:TX:b:i:t=dol	!	!	!	!	!	!	!	!	!
4dd\	.	4ff\	.	.	.	.	.	4dd\	.	4ff\	.
=1	=1	=1	=1	=1	=1	=1	=1	=1	=1	=1	=1
*	*	*	*	*	*	*2\right	*	*	*	*	*
!	!	!	!	!	!	!LO:TX:t=P:problem:2\right:global	!	!	!	!	!
4.dd\	.	4.ff\	.	2BB-/	.	2B-\	.	4.dd\	.	4.ff\	.
8b-\	.	8dd\	.	.	.	.	.	8b-\	.	8dd\	.
4dd\	.	4ff\	.	2BB-/	.	2B-\	.	8gg\L	.	(8bb-\L	.
.	.	.	.	.	.	.	.	8ff\	.	8aa\)	.
4dd\	.	4ff\	.	.	.	.	.	8ee-\	.	8gg\	.
.	.	.	.	.	.	.	.	8dd\J	.	8ff\J	.
=2	=2	=2	=2	=2	=2	=2	=2	=2	=2	=2	=2
.	.	16qqff/	.	.	.	.	.	16qqdd/	.	16qqff/	.
4cc\	.	4ee-\	.	4FF/	.	4F\	.	4cc\	.	4ee-\	.
4b-\	.	4dd\	.	4BB-/	.	4B-\	.	4b-\	.	4dd\	.
2r	.	2r	.	2r	.	4d\	.	4f/	.	(8b-\L	.
.	.	.	.	.	.	.	.	.	.	8dd\	.
.	.	.	.	.	.	4e-\	.	4f/	.	8cc\)	.
.	.	.	.	.	.	.	.	.	.	8b-\J	.
=3	=3	=3	=3	=3	=3	=3	=3	=3	=3	=3	=3
4r	.	4r	.	4r	.	4d\	.	4f/	.	4b-\	.
8r	.	8r	.	4BB-/	.	4B-\	.	8b-\L	.	8dd\L	.
8dd\	.	8ff\	.	.	.	.	.	8dd\J	.	8ff\J	.
8dd\L	.	8gg\L	.	4BBB-/	.	4BB-/	.	8ee-\L	.	(8gg\L	.
8dd\	.	8ff\	.	.	.	.	.	8dd\	.	8ff\	.
8cc\	.	8ee-\	.	4BB-/	.	4B-\	.	8cc\	.	8ee-\	.
8b-\J	.	8dd\J	.	.	.	.	.	8b-\J	.	8dd\J)	.
=4	=4	=4	=4	=4	=4	=4	=4	=4	=4	=4	=4
!	!	!LO:TX:t=P:problem:2\right:global	!	!	!	!	!	!LO:TX:t=P:problem:2\right:global	!	!LO:TX:t=P:problem:2\right:global	!
.	.	16qqdd/	.	.	.	.	.	16qqb-/	.	16qqdd/	.
*	*	*2\right	*	*	*	*	*	*2\right	*	*2\right	*
2f/	.	2cc\	.	2FF/	.	2F\	.	2a\	.	2cc\	.
8b-\L	.	4ff\	.	2r	.	2r	.	4dd\	.	4ff\	.
8b-\J	.	.	.	.	.	.	.	.	.	.	.
4dd\	.	4ff\	.	.	.	.	.	4dd\	.	4ff\	.
!	!	!	!	!	!	!	!	!LO:LB:g=original	!	!LO:LB:g=original	!
=5	=5	=5	=5	=5	=5	=5	=5	=5	=5	=5	=5
4.dd\	.	4.ff\	.	2BB-/	.	2B-\	.	4.dd\	.	4.ff\	.
8b-\	.	8dd\	.	.	.	.	.	8b-\	.	8dd\	.
*	*	*	*	*2\right	*	*	*	*	*	*	*
!	!	!	!	!LO:TX:t=P:problem:2\right:global	!	!	!	!	!	!	!
4dd\	.	4ff\	.	2B-\	.	2B-\	.	4dd\	.	(8bb-\L	.
.	.	.	.	.	.	.	.	.	.	8aa\	.
4r	.	4r	.	.	.	.	.	4dd\	.	8gg\)	.
.	.	.	.	.	.	.	.	.	.	8ff\J	.
!LO:LB:g=original	!	!LO:LB:g=original	!	!LO:LB:g=original	!	!LO:LB:g=original	!	!	!	!	!
=6	=6	=6	=6	=6	=6	=6	=6	=6	=6	=6	=6
!LO:TX:a:t=1	!	!LO:TX:a:t=1	!	!	!	!	!	!	!	!	!
1r	.	1r	.	4c\	.	4c\	.	2g/	.	(8eeX\L	.
.	.	.	.	.	.	.	.	.	.	8dd\	.
.	.	.	.	4C/	.	4C/	.	.	.	8cc\)	.
.	.	.	.	.	.	.	.	.	.	8b-\J	.
.	.	.	.	2D\	.	2D\	.	2f/	.	8a\L	.
.	.	.	.	.	.	.	.	.	.	(8cc\	.
.	.	.	.	.	.	.	.	.	.	8ff\	.
.	.	.	.	.	.	.	.	.	.	8aa\J)	.
=7	=7	=7	=7	=7	=7	=7	=7	=7	=7	=7	=7
*2\right	*	*	*	*	*	*	*	*	*	*	*
!LO:TX:t=P:problem:2\right:global	!	!	!	!	!	!	!	!	!	!	!
2b-\	.	2dd\	.	4BB-/	.	4BB-/	.	4f/	.	4dd\	.
.	.	.	.	4BB-/	.	4B-\	.	8dd\L	.	8bb-\L	.
.	.	.	.	.	.	.	.	8b-\J	.	8gg\J	.
4cc\	.	4cc\	.	4C/	.	4.c\	.	4a\	.	4ff\	.
4cc\	.	4cc\	.	4CC/	.	.	.	4g/	.	4eeX\	.
.	.	.	.	.	.	8B-\	.	.	.	.	.
=8	=8	=8	=8	=8	=8	=8	=8	=8	=8	=8	=8
2f/	.	2cc\	.	2FF/	.	2A\	.	2a\	.	2ff\	.
=:|!|:	=:|!|:	=:|!|:	=:|!|:	=:|!|:	=:|!|:	=:|!|:	=:|!|:	=:|!|:	=:|!|:	=:|!|:	=:|!|:
*>B	*	*>B	*	*>B	*	*>B	*	*>B	*	*>B	*
4f/	.	4cc\	.	2r	.	2r	.	4a\	.	4cc\	.
4f/	.	4cc\	.	.	.	.	.	4a\	.	4cc\	.
=9	=9	=9	=9	=9	=9	=9	=9	=9	=9	=9	=9
2f/	.	2cc\	.	2FF/	.	2F\	.	2a\	.	4.cc\	.
.	.	.	.	.	.	.	.	.	.	8ff\	.
2f/	.	2dd\	.	2FF/	.	2F\	.	2a\	.	8ee-\L	.
.	.	.	.	.	.	.	.	.	.	(8dd\	.
.	.	.	.	.	.	.	.	.	.	8cc\	.
.	.	.	.	.	.	.	.	.	.	8b-\J)	.
!	!	!	!	!	!	!	!	!	!	!LO:LB:g=original	!
=10	=10	=10	=10	=10	=10	=10	=10	=10	=10	=10	=10
2f/	.	2cc\	.	2FF/	.	2F\	.	8f/L	.	8a\L	.
.	.	.	.	.	.	.	.	8g/J	.	8b-\J	.
.	.	.	.	.	.	.	.	4a\	.	4cc\	.
4f/	.	4ff\	.	4F\	.	4F\	.	4a\	.	4ff\	.
4cc\	.	4aa\	.	4FF/	.	4FF/	.	4cc\	.	4aa\	.
!	!	!	!	!	!	!LO:LB:g=original	!	!LO:LB:g=original	!	!	!
=11	=11	=11	=11	=11	=11	=11	=11	=11	=11	=11	=11
4.dd\	.	4.bb-\	.	4BB-/	.	4BB-/	.	4.dd\	.	4.bb-\	.
.	.	.	.	4BB-/	.	4B-\	.	.	.	.	.
8dd\	.	8ff\	.	.	.	.	.	8dd\	.	8ff\	.
!	!	!	!	!LO:LB:g=original	!	!	!	!	!	!	!
(8dd\L	.	(8ff\L	.	4AA/	.	4A\	.	8dd\L	.	(8ff\L	.
8cc\)	.	8ee-\)	.	.	.	.	.	8cc\	.	8ee-\)	.
(8cc\	.	(8ee-\	.	4BB-/	.	4B-\	.	8cc\	.	(8ee-\	.
8b-\J)	.	8dd\J)	.	.	.	.	.	8b-\J	.	8dd\J)	.
=12	=12	=12	=12	=12	=12	=12	=12	=12	=12	=12	=12
.	.	16qqdd/	.	.	.	.	.	16qqb-/	.	16qqdd/	.
2f/	.	2cc\	.	2FF/	.	2F\	.	2a\	.	2cc\	.
2r	.	2r	.	2r	.	2r	.	4dd\	.	4ff\	.
.	.	.	.	.	.	.	.	4dd\	.	4ff\	.
=13	=13	=13	=13	=13	=13	=13	=13	=13	=13	=13	=13
!LO:TX:a:t=1	!	!LO:TX:a:t=1	!	!	!LO:DY:rj	!	!	!	!	!	!
1r	.	1r	.	2BB-/	p	2B-\	.	4.ee-\	.	4.ff\	.
.	.	.	.	.	.	.	.	8b-\	.	8dd\	.
.	.	.	.	2BB-/	.	2B-\	.	8gg\L	.	8bb-\L	.
.	.	.	.	.	.	.	.	8ff\	.	(8aa\	.
.	.	.	.	.	.	.	.	8ee-\	.	8gg\)	.
.	.	.	.	.	.	.	.	8dd\J	.	8ff\J	.
!LO:LB:g=original	!	!	!	!	!	!	!	!	!	!	!
=14	=14	=14	=14	=14	=14	=14	=14	=14	=14	=14	=14
.	.	.	.	.	.	.	.	16qqdd/	.	16qqff/	.
2r	.	2r	.	4FF/	.	4F\	.	4cc\	.	4ee-\	.
.	.	.	.	4BB-/	.	4B-\	.	4b-\	.	4dd\	.
!	!	!	!	!	!LO:DY:rj:t=fr	!	!	!	!	!	!
4B-/	.	4b-\	.	4EE-/	f	4E-\	.	8b-\L	.	(8ee-\L	.
.	.	.	.	.	.	.	.	8ee-\	.	8gg\)	.
4B-/	.	4b-\	.	4EE-/	.	4E-\	.	8ee-\	.	(8gg\	.
.	.	.	.	.	.	.	.	8gg\J	.	8bb-\J)	.
!	!	!LO:LB:g=original	!	!	!	!	!	!	!	!	!
=15	=15	=15	=15	=15	=15	=15	=15	=15	=15	=15	=15
.	.	.	.	.	.	.	.	16qqff/	.	.	.
2B-/	.	2b-\	.	4BB-/	.	4BB-/	.	4ee-\	.	4ff\	.
.	.	.	.	.	.	.	.	.	.	16qqaa/	.
.	.	.	.	4E-\	.	4E-\	.	8dd\L	.	8gg\L	.
.	.	.	.	.	.	.	.	8cc\J	.	16ff\L	.
.	.	.	.	.	.	.	.	.	.	16ee-\JJ	.
!	!	!	!	!	!	!	!	!	!	!LO:LB:g=original	!
4b-\	.	4dd\	.	4F\	.	4F\	.	4b-\	.	4dd\	.
4f/	.	4cc\	.	4FF/	.	4FF/	.	4a\	.	4cc\	.
!	!	!	!	!	!	!	!	!LO:LB:g=original	!	!	!
=8	=8>	=8>	=16	=16	=16	=16	=16	=16	=16	=16	=16
2d/	.	2b-\	.	2BB-/	.	2BB-/	.	2b-\	.	2b-\	.
!	!	!	!	!LO:LB:g=original	!	!LO:LB:g=original	!	!	!	!	!
=:|!|:	=:|!|:	=:|!|:	=:|!|:	=:|!|:	=:|!|:	=:|!|:	=:|!|:	=:|!|:	=:|!|:	=:|!|:	=:|!|:
*>C	*	*>C	*	*>C	*	*>C	*	*>C	*	*>C	*
2r	.	2r	.	2r	.	2B-\	.	8f/L	p	8dd\L	.
.	.	.	.	.	.	.	.	8f/	.	16ee-\L	.
.	.	.	.	.	.	.	.	.	.	16ff\JJ	.
.	.	.	.	.	.	.	.	8f/	.	8ee-\L	.
.	.	.	.	.	.	.	.	8f/J	.	8dd\J	.
=17	=17	=17	=17	=17	=17	=17	=17	=17	=17	=17	=17
!LO:TX:a:t=2	!	!LO:TX:a:t=2	!	!LO:TX:a:t=3	!	!	!	!	!	!	!
0r	.	0r	.	0r	.	2A\	.	8f/L	.	4cc\	.
.	.	.	.	.	.	.	.	8F/	.	.	.
.	.	.	.	.	.	.	.	8f/	.	4ff\	.
.	.	.	.	.	.	.	.	8f/J	.	.	.
.	.	.	.	.	.	4G\	.	4eX/	.	8b-\L	.
.	.	.	.	.	.	.	.	.	.	16cc\L	.
.	.	.	.	.	.	.	.	.	.	16dd\JJ	.
.	.	.	.	.	.	4C/	.	4e/	.	(8cc\L	.
.	.	.	.	.	.	.	.	.	.	8b-\J)	.
=18	=18	=18	=18	=18	=18	=18	=18	=18	=18	=18	=18
.	.	.	.	.	.	.	.	.	.	16qqb-/	.
.	.	.	.	.	.	4F\	.	2c/	.	2a\	.
.	.	.	.	.	.	4FF/	.	.	.	.	.
.	.	.	.	.	.	4E-\	.	2B-/	.	8g\L	.
.	.	.	.	.	.	.	.	.	.	16a\L	.
.	.	.	.	.	.	.	.	.	.	16b-\JJ	.
.	.	.	.	.	.	4E-\	.	.	.	8a/L	.
.	.	.	.	.	.	.	.	.	.	8g/J	.
!	!	!	!	!	!	!	!	!	!	!LO:LB:g=original	!
=19	=19	=19	=19	=19	=19	=19	=19	=19	=19	=19	=19
4r	.	4r	.	1r	.	4D\	.	4B-/	.	4f/	.
4d/	.	4b-\	.	.	.	4BB-/	.	4d/	.	4b-\	.
4f/	.	4cc\	.	.	.	4FF/	.	4a\	.	4cc\	.
4b-\	.	4dd\	.	.	.	4BB-/	.	4b-\	.	4dd\	.
=20	=20	=20	=20	=20	=20	=20	=20	=20	=20	=20	=20
4b-\	.	4dd\	.	2r	.	2F\	.	4b-\	.	4dd\	.
!	!	!LO:TX:a:t=vi	!	!	!	!	!	!	!	!	!
4f/	.	4cc\	.	.	.	.	.	4a\	.	4cc\	.
=:|!|:	=:|!|:	=:|!|:	=:|!|:	=:|!|:	=:|!|:	=:|!|:	=:|!|:	=:|!|:	=:|!|:	=:|!|:	=:|!|:
*>D	*	*>D	*	*>D	*	*>D	*	*>D	*	*>D	*
!	!	!LO:TX:a:t=de	!	!	!	!	!	!	!	!	!
2r	.	2r	.	2r	.	4d\	.	4dd\	.	4ff\	.
.	.	.	.	.	.	4c\	.	4dd\	.	4ff\	.
=21	=21	=21	=21	=21	=21	=21	=21	=21	=21	=21	=21
!LO:TX:a:t=6	!	!LO:TX:a:t=6	!	!LO:TX:a:t=3	!	!	!	!	!	!	!
00r	.	00r	.	0r	.	2Bn\	.	4.dd\	.	4.ff\	.
.	.	.	.	.	.	.	.	(16ee-\LL	.	16gg\LL	.
.	.	.	.	.	.	.	.	16ff\JJ)	.	16aa\JJ	.
!	!	!	!	!	!	!	!	!LO:LB:g=original	!	!	!
.	.	.	.	.	.	2G\	.	8ee-\L	.	8gg\L	.
.	.	.	.	.	.	.	.	8dd\	.	8ff\	.
.	.	.	.	.	.	.	.	8cc\	.	8ee-\	.
.	.	.	.	.	.	.	.	8bX\J	.	8cc\J	.
!	!	!	!	!	!	!LO:LB:g=original	!	!	!	!	!
=22	=22	=22	=22	=22	=22	=22	=22	=22	=22	=22	=22
.	.	.	.	.	.	.	.	.	.	16qqdd/	.
.	.	.	.	.	.	2c\	.	2cc\	.	4ee-\	.
.	.	.	.	.	.	.	.	.	.	4cc\	.
.	.	.	.	.	.	4c\	.	4cc\	.	4ee-\	.
.	.	.	.	.	.	4B-X\	.	4cc\	.	4ee-\	.
!	!	!	!	!	!	!	!	!	!	!LO:LB:g=original	!
=23	=23	=23	=23	=23	=23	=23	=23	=23	=23	=23	=23
.	.	.	.	1r	.	2A\	.	4.cc\	.	4.ee-\	.
.	.	.	.	.	.	.	.	16dd\LL	.	(16ff\LL	.
.	.	.	.	.	.	.	.	16ee-\JJ	.	16gg\JJ)	.
.	.	.	.	.	.	2F\	.	8dd\L	.	8ff\L	.
.	.	.	.	.	.	.	.	8cc\	.	(8ee-\	.
.	.	.	.	.	.	.	.	8b-\	.	8dd\)	.
.	.	.	.	.	.	.	.	8a\J	.	8cc\J	.
=24	=24	=24	=24	=24	=24	=24	=24	=24	=24	=24	=24
.	.	.	.	.	.	.	.	.	.	16qqcc/	.
.	.	.	.	2r	.	2B-\	.	2b-\	.	4dd\	.
.	.	.	.	.	.	.	.	.	.	4b-\	.
.	.	.	.	2BB-/	.	2B-\	.	2f/	.	8dd\L	.
.	.	.	.	.	.	.	.	.	.	16ee-\L	.
.	.	.	.	.	.	.	.	.	.	16ff\JJ	.
.	.	.	.	.	.	.	.	.	.	8ee-\L	.
.	.	.	.	.	.	.	.	.	.	8dd\J	.
=25	=25	=25	=25	=25	=25	=25	=25	=25	=25	=25	=25
0r	.	0r	.	2AA/	.	2A\	.	2f/	.	4cc\	.
.	.	.	.	.	.	.	.	.	.	4ff\	.
.	.	.	.	4GG/	.	4G\	.	4f/	.	8b-\L	.
.	.	.	.	.	.	.	.	.	.	16cc\L	.
.	.	.	.	.	.	.	.	.	.	16dd\JJ	.
.	.	.	.	4C/	.	4C/	.	4eX/	.	8cc\L	.
.	.	.	.	.	.	.	.	.	.	8b-\J	.
=26	=26	=26	=26	=26	=26	=26	=26	=26	=26	=26	=26
.	.	.	.	.	.	.	.	.	.	16qqb-/	.
.	.	.	.	4F\	.	4F\	.	2c/	.	2a\	.
.	.	.	.	4FF/	.	4FF/	.	.	.	.	.
.	.	.	.	2r	.	4E-\	.	2B-/	.	8g/L	.
.	.	.	.	.	.	.	.	.	.	16a/L	.
.	.	.	.	.	.	.	.	.	.	16b-/JJ	.
.	.	.	.	.	.	4E-\	.	.	.	8f/L	.
.	.	.	.	.	.	.	.	.	.	8e-/J	.
!	!	!	!	!LO:LB:g=original	!	!LO:LB:g=original	!	!	!	!LO:LB:g=original	!
=27	=27	=27	=27	=27	=27	=27	=27	=27	=27	=27	=27
!	!	!	!	!LO:TX:a:t=1	!	!	!	!	!	!	!
2d/	.	2b-\	.	1r	.	4D\	.	8B-/L	.	8f\L	.
.	.	.	.	.	.	.	.	8d/J	.	8b-\	.
.	.	.	.	.	.	4BB-\	.	8b-\L	.	8dd\	.
.	.	.	.	.	.	.	.	8dd\J	.	8ff\J	.
!	!	!	!	!	!	!	!	!LO:LB:g=original	!	!	!
4b-\	.	4dd\	.	.	.	4F\	.	4b-\	.	4dd\	.
4f/	.	4cc\	.	.	.	4FF/	.	4a\	.	4cc\	.
!LO:LB:g=original	!	!	!	!	!	!	!	!	!	!	!
=28	=28	=28	=28	=28	=28	=28	=28	=28	=28	=28	=28
2e-/	.	2b-\	.	2r	.	2BB-/	.	2b-\	.	4b-\	.
.	.	.	.	.	.	.	.	.	.	4r	.
!	!	!LO:LB:g=original	!	!	!	!	!	!	!	!	!
=:|!|:	=:|!|:	=:|!|:	=:|!|:	=:|!|:	=:|!|:	=:|!|:	=:|!|:	=:|!|:	=:|!|:	=:|!|:	=:|!|:
*>E	*	*>E	*	*>E	*	*>E	*	*>E	*	*>E	*
*	*	*	*	*k[b-e-a-]	*	*k[b-e-a-]	*	*k[b-e-a-]	*	*k[b-e-a-]	*
!	!	!LO:TX:b:t=tro	!	!	!	!	!	!	!	!	!
!	!	!LO:TX:a:t=re	!	!	!	!	!	!	!	!	!
2r	.	2r	.	2r	.	2r	.	4g\	.	4b-\	.
.	.	.	.	.	.	.	.	4b-\	.	4ee-\	.
=29	=29	=29	=29	=29	=29	=29	=29	=29	=29	=29	=29
2B-/	.	2b-\	sf	2E-\	.	2E-\	.	2ee-\	.	2gg\	.
2B-/	.	2b-\	p	2BB-/	.	2BB-/	.	8dd\L	.	8bb-\L	.
.	.	.	.	.	.	.	.	8cc\	.	8aa-\	.
.	.	.	.	.	.	.	.	8b-\	.	8gg\	.
.	.	.	.	.	.	.	.	8a-\J	.	8ff\J	.
=30	=30	=30	=30	=30	=30	=30	=30	=30	=30	=30	=30
.	.	.	.	.	.	.	.	16qqa-/	.	16qqff/	.
2B-/	.	2b-\	.	2EE-/	.	2EE-/	.	2g/	.	2ee-\	.
2r	.	2r	.	8c\L	.	8e-\L	.	2r	.	2r	.
.	.	.	.	8B-\	.	8d\	.	.	.	.	.
.	.	.	.	8A-\	.	8c\	.	.	.	.	.
.	.	.	.	8G\J	.	8B-\J	.	.	.	.	.
=31	=31	=31	=31	=31	=31	=31	=31	=31	=31	=31	=31
!	!	!	!	!	!	!	!	!LO:TX:a:t=1	!	!LO:TX:a:t=1	!
4r	.	4r	.	4G\	.	4.B-\	.	1r	.	1r	.
4B-/	.	4b-\	.	4r	.	.	.	.	.	.	.
.	.	.	.	.	.	8A-\	.	.	.	.	.
!	!	!	!	!	!	!LO:LB:g=original	!	!	!	!	!
4B-/	.	4b-\	.	2r	.	8G\L	.	.	.	.	.
.	.	.	.	.	.	8F\	.	.	.	.	.
4B-/	.	4b-\	.	.	.	8G\	.	.	.	.	.
.	.	.	.	.	.	8A-\J	.	.	.	.	.
!	!	!LO:LB:g=original	!	!	!	!	!	!	!	!	!
=32	=32	=32	=32	=32	=32	=32	=32	=32	=32	=32	=32
.	.	.	.	8qqG/	.	16qqG/	.	.	.	.	.
2B-/	.	2b-\	.	2F\	.	2F\	.	2r	.	2r	.
2r	.	2r	.	2r	.	2r	.	4g/	.	4b-\	.
.	.	.	.	.	.	.	.	4cc\	.	4ee-\	.
!	!	!	!	!	!	!	!	!	!	!LO:LB:g=original	!
=33	=33	=33	=33	=33	=33	=33	=33	=33	=33	=33	=33
2B-/	.	2b-\	.	4EE-/	.	4E-\	.	2ee-\	.	2gg\	.
.	.	.	.	4EE-/	.	4E-\	.	.	.	.	.
!	!	!	!	!LO:LB:g=original	!	!	!	!LO:LB:g=original	!	!	!
4B-/	.	4b-\	.	4E-\	.	4E-\	.	8gg\L	.	8bb-\L	.
.	.	.	.	.	.	.	.	8ee-\	.	8aa-\	.
4r	.	4r	.	4E-\	.	4E-\	.	8dd\	.	8gg\	.
.	.	.	.	.	.	.	.	8cc\J	.	8ff\J	.
=34	=34	=34	=34	=34	=34	=34	=34	=34	=34	=34	=34
2B-/	.	2b-\	.	4D\	.	4D\	.	2b-\	.	4.ff\	.
.	.	.	.	4DD/	.	4D\	.	.	.	.	.
.	.	.	.	.	.	.	.	.	.	(16gg\LL	.
.	.	.	.	.	.	.	.	.	.	16aa-\JJ)	.
2r	.	2r	.	4r	.	4r	.	8dd'\L	.	8bb-\L	.
.	.	.	.	.	.	.	.	(8dd\	.	8ff\	.
.	.	.	.	4DD/	.	4D\	.	8cc\	.	8ee-\	.
.	.	.	.	.	.	.	.	8b-\J)	.	8dd\J	.
=35	=35	=35	=35	=35	=35	=35	=35	=35	=35	=35	=35
!LO:TX:a:t=1	!	!LO:TX:a:t=1	!	!	!	!	!	!	!	!	!
1r	.	1r	.	4EE-/	.	4E-\	.	4g/	.	8dd\L	.
.	.	.	.	.	.	.	.	.	.	8cc\	.
.	.	.	.	4E-\	.	4E-\	.	8g/L	.	8ee-\	.
.	.	.	.	.	.	.	.	8e-/J	.	8gg\J	.
.	.	.	.	4F\	.	4F\	.	4d/	.	4b-\	.
.	.	.	.	.	.	.	.	16qqf/	.	16qqdd/	.
.	.	.	.	4FF/	.	4FF/	.	4e-/	.	4cc\	.
=36	=36	=36	=36	=36	=36	=36	=36	=36	=36	=36	=36
2r	.	2r	.	2BB-/	.	2BB-/	.	2d/	.	2b-\	.
!LO:LB:g=original	!	!	!	!	!	!LO:LB:g=original	!	!	!	!	!
=:|!|:	=:|!|:	=:|!|:	=:|!|:	=:|!|:	=:|!|:	=:|!|:	=:|!|:	=:|!|:	=:|!|:	=:|!|:	=:|!|:
*>F	*	*>F	*	*>F	*	*>F	*	*>F	*	*>F	*
2r	.	2r	.	2r	.	2r	.	4.b-\	.	4.b-\	.
.	.	.	.	.	.	.	.	8a\	.	8cc\	.
!	!	!	!	!	!	!	!	!	!	!LO:LB:g=original	!
=37	=37	=37	=37	=37	=37	=37	=37	=37	=37	=37	=37
!LO:TX:a:t=1	!	!LO:TX:a:t=1	!	!	!	!	!	!	!	!	!
1r	.	1r	.	2BB-/	.	2B-\	.	4b-\	.	4dd'\	.
.	.	.	.	.	.	.	.	4cc\	.	4ee-'\	.
.	.	.	.	2BB-/	.	2B-\	.	4dd\	.	4ff'\	.
.	.	.	.	.	.	.	.	4ee-\	.	4gg'\	.
!	!	!	!	!	!	!	!	!LO:LB:g=original	!	!	!
=38	=38	=38	=38	=38	=38	=38	=38	=38	=38	=38	=38
!	!LO:DY:rj	!	!	!	!	!	!	!	!	!	!LO:DY:t=f.
2B-/	p	2b-\	.	2BB-/	.	2B-\	.	2dd\	f	8ff\L	f
.	.	.	.	.	.	.	.	.	.	8dd\J	.
!	!	!	!	!	!	!	!	!	!	!	!LO:DY:rj
.	.	.	.	.	.	.	.	.	.	4b-\	p
!	!	!	!	!	!	!	!	!	!	!	!LO:DY:t=f
2B-/	.	2b-\	.	2BB-/	.	2B-\	.	2ee-\	.	8gg\L	f
.	.	.	.	.	.	.	.	.	.	8ee-\J	.
.	.	.	.	.	.	.	.	.	.	4b-\	p
=39	=39	=39	=39	=39	=39	=39	=39	=39	=39	=39	=39
1B-/	.	1b-\	.	4BB-/	.	4B-\	.	8ff'\L	.	8aa-'\L	.
.	.	.	.	.	.	.	.	8ee-'\	.	8gg'\	.
.	.	.	.	4r	.	4r	.	8dd'\	.	8ff'\	.
.	.	.	.	.	.	.	.	8cc'\J	.	8ee-'\J	.
!	!	!	!	!LO:LB:g=original	!	!	!	!	!	!	!
.	.	.	.	4r	.	4r	.	8b-'\L	.	8dd'\L	.
.	.	.	.	.	.	.	.	8a-'\	.	8cc'\	.
.	.	.	.	4BB-/	.	4B-\	.	8g'\	.	8b-'\	.
.	.	.	.	.	.	.	.	8f'\J	.	8a-'\J	.
=40	=40	=40	=40	=40	=40	=40	=40	=40	=40	=40	=40
.	.	.	.	.	.	.	.	16qqf/	.	16qqa-/	.
4B-/	.	4b-\	.	4EE-/	.	4E-\	.	4e-/	.	4g/	.
4B-/	.	4b-\	.	4BB-/	.	4B-\	.	4d/	.	4f/	.
2r	.	2r	.	2r	.	2r	.	4g\	.	4b-\	.
.	.	.	.	.	.	.	.	4b-\	.	4ee-\	.
=41	=41	=41	=41	=41	=41	=41	=41	=41	=41	=41	=41
2B-/	.	2b-\	.	4E-\	.	4E-\	.	2ee-\	.	2gg\	.
.	.	.	.	4EE-/	.	4E-\	.	.	.	.	.
2B-/	.	2b-\	.	4BB-/	.	4BB-/	.	8dd\L	.	8bb-\L	.
.	.	.	.	.	.	.	.	8cc\	.	8aa-\	.
.	.	.	.	4BB-/	.	4BB-/	.	8b-\	.	8gg\	.
.	.	.	.	.	.	.	.	8a-\J	.	8ff\J	.
!	!	!LO:LB:g=original	!	!	!	!	!	!	!	!LO:LB:g=original	!
=42	=42	=42	=42	=42	=42	=42	=42	=42	=42	=42	=42
.	.	.	.	.	.	.	.	16qqa-/	.	16qqff/	.
2B-/	.	2b-\	.	2E-\	.	2E-\	.	2g/	.	2ee-\	.
!	!	!	!	!	!	!LO:LB:g=original	!	!	!	!	!
2r	.	2r	.	8c\L	.	8e-\L	.	2r	.	2r	.
.	.	.	.	8B-\	.	8d\	.	.	.	.	.
.	.	.	.	8A-\	.	8c\	.	.	.	.	.
.	.	.	.	8G\J	.	8B-\J	.	.	.	.	.
!	!	!	!	!	!	!	!	!LO:LB:g=original	!	!	!
=43	=43	=43	=43	=43	=43	=43	=43	=43	=43	=43	=43
2r	.	2r	.	4A-\	.	4A-\	.	4b-\	.	8bb-\L	.
.	.	.	.	.	.	.	.	.	.	8gg\	.
.	.	.	.	4AA-/	.	4A-\	.	4cc\	.	8ff\	.
.	.	.	.	.	.	.	.	.	.	8aa-\J	.
4B-/	.	4b-\	.	4BB-/	.	4B-\	.	4g\	.	4ee-\	.
4B-/	.	4b-\	.	4BB-/	.	4BB-/	.	4a-\	.	4dd\	.
=44	=44	=44	=44	=44	=44	=44	=44	=44	=44	=44	=44
.	.	.	.	.	.	.	.	16qqa-/	.	16qqdd/	.
2B-/	.	2b-\	.	2E-\	.	2E-\	.	2g/	.	2ee-\	.
!	!	!	!	!LO:LB:g=original	!	!	!	!	!	!	!
=:|!|:	=:|!|:	=:|!|:	=:|!|:	=:|!|:	=:|!|:	=:|!|:	=:|!|:	=:|!|:	=:|!|:	=:|!|:	=:|!|:
*>G	*	*>G	*	*>G	*	*>G	*	*>G	*	*>G	*
*	*	*k[b-e-]	*	*k[b-e-]	*	*k[b-e-]	*	*k[b-e-]	*	*k[b-e-]	*
!	!	!	!	!	!	!	!	!	!	!LO:TX:t=P:problem:nie zanotowana zmiana tonacji w partiach klarnetów	!
4dd\	.	4ff\	.	2r	.	2r	.	4dd\	.	4ff\	.
4dd\	.	4ff\	.	.	.	.	.	4dd\	.	4ff\	.
=45	=45	=45	=45	=45	=45	=45	=45	=45	=45	=45	=45
4.dd\	.	4.ff\	.	2BB-/	.	2B-\	.	4.dd\	.	4.ff\	.
8b-\	.	8dd\	.	.	.	.	.	8b-\	.	8dd\	.
4dd\	.	4ff\	.	2BB-/	.	2B-\	.	8gg\L	.	(8bb-\L	.
.	.	.	.	.	.	.	.	8ff\	.	8aa\	.
4dd\	.	4ff\	.	.	.	.	.	8ee-\	.	8gg\	.
.	.	.	.	.	.	.	.	8dd\J	.	8ff\J)	.
!LO:LB:g=original	!	!	!	!	!	!	!	!	!	!	!
=46	=46	=46	=46	=46	=46	=46	=46	=46	=46	=46	=46
.	.	16qqff/	.	.	.	.	.	16qqdd/	.	16qqff/	.
4dd\	.	4ee-\	.	4FF/	.	4F\	.	4cc\	.	4ee-\	.
4cc\	.	4dd\	.	4BB-/	.	4B-\	.	4b-\	.	4dd\	.
2r	.	2r	.	2r	.	4d\	.	4f/	.	(8b-\L	.
.	.	.	.	.	.	.	.	.	.	8dd\	.
.	.	.	.	.	.	4e-\	.	4f/	.	8cc\	.
.	.	.	.	.	.	.	.	.	.	8b-\J)	.
!	!	!	!	!	!	!LO:LB:g=original	!	!	!	!LO:LB:g=original	!
=47	=47	=47	=47	=47	=47	=47	=47	=47	=47	=47	=47
4r	.	4r	.	4r	.	4d\	.	4f/	.	4b-\	.
8r	.	8r	.	4BB-/	.	4B-\	.	8b-\L	.	8dd\L	.
8dd\	.	8ff\	.	.	.	.	.	8dd\J	.	8ff\J	.
!	!	!	!	!	!	!	!	!LO:LB:g=original	!	!	!
8dd\L	.	8gg\L	.	4BBB-/	.	4BB-/	.	8ee-\L	.	8gg\L	.
8dd\	.	8ff\	.	.	.	.	.	8dd\	.	(8ff\	.
8cc\	.	8ee-\	.	4BB-/	.	4B-\	.	8cc\	.	8ee-\)	.
8b-\J	.	8dd\J	.	.	.	.	.	8b-\J	.	8dd\J	.
=48	=48	=48	=48	=48	=48	=48	=48	=48	=48	=48	=48
.	.	16qqdd/	.	.	.	.	.	16qqb-/	.	16qqdd/	.
2f/	.	2cc\	.	2FF/	.	2F\	.	2a\	.	2cc\	.
4dd\	.	4ff\	.	2r	.	2r	.	4dd\	.	4ff\	.
4dd\	.	4ff\	.	.	.	.	.	4dd\	.	4ff\	.
!	!	!LO:LB:g=original	!	!	!	!	!	!	!	!	!
=49	=49	=49	=49	=49	=49	=49	=49	=49	=49	=49	=49
4.dd\	.	4.ff\	.	2BB-/	.	2B-\	.	4.dd\	.	4.ff\	.
8b-\	.	8dd\	.	.	.	.	.	8b-\	.	8dd\	.
4dd\	.	4ff\	.	2B-\	.	2B-\	.	4dd\	.	8bb-\L	.
.	.	.	.	.	.	.	.	.	.	(8aa\	.
4r	.	4r	.	.	.	.	.	4dd\	.	8gg\)	.
.	.	.	.	.	.	.	.	.	.	8ff\J	.
=50	=50	=50	=50	=50	=50	=50	=50	=50	=50	=50	=50
!LO:TX:a:t=1	!	!LO:TX:a:t=1	!	!	!	!	!	!	!	!	!
1r	.	1r	.	4c\	.	4c\	.	2g/	.	(8eeX\L	.
.	.	.	.	.	.	.	.	.	.	8dd\	.
.	.	.	.	4C/	.	4C/	.	.	.	8cc\	.
.	.	.	.	.	.	.	.	.	.	8b-\J)	.
!	!	!	!	!LO:LB:g=original	!	!	!	!	!	!	!
.	.	.	.	2D\	.	2D\	.	2f/	.	(8a\L	.
.	.	.	.	.	.	.	.	.	.	8cc\	.
.	.	.	.	.	.	.	.	.	.	8ff\)	.
.	.	.	.	.	.	.	.	.	.	8aa\J	.
!	!	!	!	!	!	!	!	!	!	!LO:LB:g=original	!
=51	=51	=51	=51	=51	=51	=51	=51	=51	=51	=51	=51
2b-\	.	2dd\	.	4BB-/	.	4BB-/	.	4f/	.	4dd\	.
.	.	.	.	4BB-/	.	4B-\	.	8dd\L	.	8bb-\L	.
.	.	.	.	.	.	.	.	8b-\J	.	8gg\J	.
4cc\	.	4cc\	.	4C/	.	4.c\	.	4a\	.	4ff\	.
4cc\	.	4cc\	.	4CC/	.	.	.	4g\	.	4eeX\	.
.	.	.	.	.	.	8B-\	.	.	.	.	.
!	!	!	!	!	!	!LO:LB:g=original	!	!	!	!	!
=52	=52	=52	=52	=52	=52	=52	=52	=52	=52	=52	=52
2f/	.	2cc\	.	2FF/	.	2A\	.	2a\	.	2ff\	.
!	!	!	!	!	!	!	!	!LO:LB:g=original	!	!	!
=:|!|:	=:|!|:	=:|!|:	=:|!|:	=:|!|:	=:|!|:	=:|!|:	=:|!|:	=:|!|:	=:|!|:	=:|!|:	=:|!|:
*>H	*	*>H	*	*>H	*	*>H	*	*>H	*	*>H	*
4f/	.	4cc\	.	2r	.	2r	.	4a\	.	4dd\	.
4f/	.	4cc\	.	.	.	.	.	4a\	.	4dd\	.
=53	=53	=53	=53	=53	=53	=53	=53	=53	=53	=53	=53
2f/	.	2cc\	.	2FF/	.	2F\	.	2a\	.	4.cc\	.
.	.	.	.	.	.	.	.	.	.	8ff\	.
2f/	.	2dd\	.	2FF/	.	2F\	.	2b-\	.	8ee-\L	.
.	.	.	.	.	.	.	.	.	.	(8dd\	.
.	.	.	.	.	.	.	.	.	.	8cc\)	.
.	.	.	.	.	.	.	.	.	.	8b-\J	.
!LO:LB:g=original	!	!	!	!	!	!	!	!	!	!	!
=54	=54	=54	=54	=54	=54	=54	=54	=54	=54	=54	=54
2f/	.	2cc\	.	2FF/	.	2F\	.	8f/L	.	8a\L	.
.	.	.	.	.	.	.	.	8g/J	.	8b-\J	.
.	.	.	.	.	.	.	.	4a\	.	4cc\	.
4f/	.	4ff\	.	4F\	.	4F\	.	4a\	.	4ff\	.
4cc\	.	4aa\	.	4FF/	.	4FF/	.	4cc\	.	4aa\	.
=55	=55	=55	=55	=55	=55	=55	=55	=55	=55	=55	=55
4.dd\	.	4.bb-\	.	4BB-/	.	4BB-/	.	4.dd\	.	4.bb-\	.
.	.	.	.	4BB-/	.	4B-\	.	.	.	.	.
8dd\	.	8ff\	.	.	.	.	.	8dd\	.	8ff\	.
!	!	!	!	!	!	!	!	!	!	!LO:LB:g=original	!
8dd\L	.	(8ff\L	.	4AA/	.	4A\	.	8dd\L	.	(8ff\L	.
8cc\	.	8ee-\	.	.	.	.	.	8cc\	.	8ee-\)	.
8cc\	.	8ee-\	.	4BB-/	.	4B-\	.	8cc\	.	(8ee-\	.
8b-\J	.	8dd\J)	.	.	.	.	.	8b-\J	.	8dd\J)	.
!	!	!LO:LB:g=original	!	!LO:LB:g=original	!	!	!	!	!	!	!
=56	=56	=56	=56	=56	=56	=56	=56	=56	=56	=56	=56
.	.	16qqdd/	.	.	.	.	.	16qqb-/	.	16qqdd/	.
2f/	.	2cc\	.	2FF/	.	2F\	.	2a\	.	2cc\	.
2r	.	2r	.	2r	.	2r	.	4dd\	.	4ff\	.
.	.	.	.	.	.	.	.	4dd\	.	4ff\	.
!	!	!	!	!	!	!LO:LB:g=original	!	!	!	!	!
=57	=57	=57	=57	=57	=57	=57	=57	=57	=57	=57	=57
!LO:TX:a:t=1	!	!LO:TX:a:t=1	!	!	!	!	!LO:DY:rj	!	!	!	!
1r	.	1r	.	2BB-/	.	2B-\	p	4.dd\	.	4.ff\	.
.	.	.	.	.	.	.	.	8b-\	.	8dd\	.
!	!	!	!	!	!	!	!	!LO:LB:g=original	!	!	!
.	.	.	.	2BB-/	.	2B-\	.	8gg\L	.	8bb-\L	.
.	.	.	.	.	.	.	.	8ff\	.	(8aa\	.
.	.	.	.	.	.	.	.	8ee-\	.	8gg\)	.
.	.	.	.	.	.	.	.	8dd\J	.	8ff\J	.
=58	=58	=58	=58	=58	=58	=58	=58	=58	=58	=58	=58
.	.	.	.	.	.	.	.	16qqdd/	.	16qqff/	.
2r	.	2r	.	4FF/	.	4F\	f	4cc\	.	4ee-\	.
.	.	.	.	4BB-/	.	4B-\	.	4b-\	.	4dd\	.
4B-/	.	4b-\	.	4EE-/	.	4E-\	.	8b-\L	.	(8ee-\L	.
.	.	.	.	.	.	.	.	8ee-\	.	8gg\)	.
4B-/	.	4b-\	.	4EE-/	.	4E-\	.	8ee-\	.	(8gg\	.
.	.	.	.	.	.	.	.	8gg\J	.	8bb-\J)	.
=59	=59	=59	=59	=59	=59	=59	=59	=59	=59	=59	=59
.	.	.	.	.	.	.	.	16qqff/	.	.	.
2B-/	.	2b-\	.	4BB-/	.	4BB-/	.	4ee-\	.	4ff\	.
.	.	.	.	.	.	.	.	.	.	16qqaa/	.
.	.	.	.	4E-\	.	4E-\	.	8dd\L	.	8gg\L	.
.	.	.	.	.	.	.	.	8cc\J	.	16ff\L	.
.	.	.	.	.	.	.	.	.	.	16ee-\JJ	.
!	!	!	!	!	!	!	!	!	!	!LO:LB:g=original	!
4b-\	.	4dd\	.	4F\	.	4F\	.	4b-\	.	4dd\	.
4f/	.	4cc\	.	4FF/	.	4FF/	.	4a\	.	4cc\	.
=60	=60	=60	=60	=60	=60	=60	=60	=60	=60	=60	=60
.	.	.	.	.	.	.	.	.	.	16qqcc/	.
2d/	.	2b-\	.	2BB-/	.	2BB-/	.	2b-\	.	2b-\	.
=:|!	=:|!	=:|!	=:|!	=:|!	=:|!	=:|!	=:|!	=:|!	=:|!	=:|!	=:|!
*-	*-	*-	*-	*-	*-	*-	*-	*-	*-	*-	*-
!!!system-decoration: [(s1,s2,s3,s4)][(s5,s6)]
!!!RDF**dynam: f = for
!!!EED: Andrzej Borzym
!!!EST: 2021-06-24
!!!AIN: 2 clars 2 cor 2 fagot
!!!ENC: Tomasz Grochalski
!!!END: 2021-06-18
